pp/cellphone-eye_print.svg

<svg viewBox="0 0 20 20" fill="none" xmlns="http://www.w3.org/2000/svg" height="1em" width="1em">
  <g clip-path="url(#a)">
    <g opacity="0.8">
      <path d="M17 3H10C8.89543 3 8 3.89543 8 5V18V18.5C8 19.3284 8.67157 20 9.5 20H17C18.1046 20 19 19.1046 19 18V5C19 3.89543 18.1046 3 17 3Z" fill="currentColor"/>
      <path fill-rule="evenodd" clip-rule="evenodd" d="M7 5C7 3.34315 8.34315 2 10 2H17C18.6569 2 20 3.34315 20 5V18C20 19.6569 18.6569 21 17 21H9.5C8.11929 21 7 19.8807 7 18.5V5ZM10 4C9.44772 4 9 4.44772 9 5V18.5C9 18.7761 9.22386 19 9.5 19H17C17.5523 19 18 18.5523 18 18V5C18 4.44772 17.5523 4 17 4H10Z" fill="currentColor"/>
      <path d="M6.91748 10.9691C9.08105 10.9691 10.835 11.9556 10.835 13.1726C10.835 14.3896 9.08105 15.3762 6.91748 15.3762C4.75392 15.3762 3 14.3896 3 13.1726C3 11.9556 4.75392 10.9691 6.91748 10.9691Z" fill="currentColor"/>
      <path fill-rule="evenodd" clip-rule="evenodd" d="M4.63766 13.8592C5.17091 14.1592 5.97491 14.3762 6.91748 14.3762C7.86005 14.3762 8.66405 14.1592 9.1973 13.8592C9.76189 13.5416 9.83496 13.2594 9.83496 13.1726C9.83496 13.0859 9.76189 12.8036 9.1973 12.486C8.66405 12.1861 7.86005 11.9691 6.91748 11.9691C5.97491 11.9691 5.17091 12.1861 4.63766 12.486C4.07308 12.8036 4 13.0859 4 13.1726C4 13.2594 4.07308 13.5416 4.63766 13.8592ZM3.65714 15.6024C2.80388 15.1224 2 14.3029 2 13.1726C2 12.0424 2.80388 11.2229 3.65714 10.7429C4.54175 10.2453 5.69648 9.96906 6.91748 9.96906C8.13848 9.96906 9.29321 10.2453 10.1778 10.7429C11.0311 11.2229 11.835 12.0424 11.835 13.1726C11.835 14.3029 11.0311 15.1224 10.1778 15.6024C9.29321 16.1 8.13848 16.3762 6.91748 16.3762C5.69648 16.3762 4.54175 16.1 3.65714 15.6024Z" fill="currentColor"/>
      <path fill-rule="evenodd" clip-rule="evenodd" d="M6.91746 8.59998C7.41451 8.59998 7.81746 9.00292 7.81746 9.49998L7.81746 10.969C7.81746 11.4661 7.41451 11.869 6.91746 11.869C6.4204 11.869 6.01746 11.4661 6.01746 10.969L6.01746 9.49998C6.01746 9.00292 6.4204 8.59998 6.91746 8.59998Z" fill="currentColor"/>
      <path fill-rule="evenodd" clip-rule="evenodd" d="M9.05272 8.86238C9.54013 8.95986 9.85622 9.434 9.75874 9.9214L9.5139 11.1456C9.41642 11.633 8.94227 11.9491 8.45487 11.8516C7.96747 11.7542 7.65137 11.28 7.74885 10.7926L7.99369 9.5684C8.09118 9.08099 8.56532 8.7649 9.05272 8.86238Z" fill="currentColor"/>
      <path fill-rule="evenodd" clip-rule="evenodd" d="M4.78224 8.86238C4.29484 8.95986 3.97874 9.434 4.07622 9.9214L4.32106 11.1456C4.41854 11.633 4.89269 11.9491 5.38009 11.8516C5.86749 11.7542 6.18359 11.28 6.08611 10.7926L5.84127 9.5684C5.74379 9.08099 5.26964 8.7649 4.78224 8.86238Z" fill="currentColor"/>
      <path fill-rule="evenodd" clip-rule="evenodd" d="M2.53693 9.70762C2.11071 9.96335 1.9725 10.5162 2.22824 10.9424L2.96276 12.1666C3.2185 12.5928 3.77133 12.731 4.19755 12.4753C4.62378 12.2196 4.76198 11.6667 4.50625 11.2405L3.77172 10.0163C3.51599 9.59009 2.96316 9.45188 2.53693 9.70762Z" fill="currentColor"/>
      <path fill-rule="evenodd" clip-rule="evenodd" d="M11.2979 9.70762C11.7241 9.96335 11.8623 10.5162 11.6066 10.9424L10.8721 12.1666C10.6163 12.5928 10.0635 12.731 9.63729 12.4753C9.21106 12.2196 9.07285 11.6667 9.32859 11.2405L10.0631 10.0163C10.3188 9.59009 10.8717 9.45188 11.2979 9.70762Z" fill="currentColor"/>
    </g>
    <path d="M12.675 15.1375C12.675 15.5103 12.3727 15.8125 12 15.8125C11.6272 15.8125 11.325 15.5103 11.325 15.1375C11.325 14.7647 11.6272 14.4625 12 14.4625C12.3727 14.4625 12.675 14.7647 12.675 15.1375Z" fill="currentColor"/>
    <path fill-rule="evenodd" clip-rule="evenodd" d="M12 14.9625C11.9033 14.9625 11.825 15.0409 11.825 15.1375C11.825 15.2342 11.9033 15.3125 12 15.3125C12.0966 15.3125 12.175 15.2342 12.175 15.1375C12.175 15.0409 12.0966 14.9625 12 14.9625ZM10.825 15.1375C10.825 14.4886 11.351 13.9625 12 13.9625C12.6489 13.9625 13.175 14.4886 13.175 15.1375C13.175 15.7865 12.6489 16.3125 12 16.3125C11.351 16.3125 10.825 15.7865 10.825 15.1375Z" fill="black"/>
    <path fill-rule="evenodd" clip-rule="evenodd" d="M6 3.5C6 2.11929 7.11929 1 8.5 1H15.5C16.8807 1 18 2.11929 18 3.5V16.5C18 17.8807 16.8807 19 15.5 19H8C6.89543 19 6 18.1046 6 17V15.5C6 15.2239 6.22386 15 6.5 15C6.77614 15 7 15.2239 7 15.5V17C7 17.5523 7.44772 18 8 18H15.5C16.3284 18 17 17.3284 17 16.5V3.5C17 2.67157 16.3284 2 15.5 2H8.5C7.67157 2 7 2.67157 7 3.5V6.75C7 7.02614 6.77614 7.25 6.5 7.25C6.22386 7.25 6 7.02614 6 6.75V3.5Z" fill="black"/>
    <path fill-rule="evenodd" clip-rule="evenodd" d="M2.89253 12.795C3.51362 13.1444 4.40531 13.3762 5.41748 13.3762C6.42965 13.3762 7.32134 13.1444 7.94243 12.795C8.57918 12.4368 8.83496 12.0203 8.83496 11.6726C8.83496 11.325 8.57918 10.9084 7.94243 10.5503C7.32134 10.2009 6.42965 9.96906 5.41748 9.96906C4.40531 9.96906 3.51362 10.2009 2.89253 10.5503C2.25578 10.9084 2 11.325 2 11.6726C2 12.0203 2.25578 12.4368 2.89253 12.795ZM2.40227 13.6666C1.62118 13.2272 1 12.542 1 11.6726C1 10.8033 1.62118 10.118 2.40227 9.67868C3.19904 9.2305 4.26609 8.96906 5.41748 8.96906C6.56887 8.96906 7.63592 9.2305 8.43269 9.67868C9.21378 10.118 9.83496 10.8033 9.83496 11.6726C9.83496 12.542 9.21378 13.2272 8.43269 13.6666C7.63592 14.1148 6.56887 14.3762 5.41748 14.3762C4.26609 14.3762 3.19904 14.1148 2.40227 13.6666Z" fill="black"/>
    <path fill-rule="evenodd" clip-rule="evenodd" d="M5.41748 7.5C5.69362 7.5 5.91748 7.72386 5.91748 8L5.91748 9.46906C5.91748 9.7452 5.69362 9.96906 5.41748 9.96906C5.14134 9.96906 4.91748 9.7452 4.91748 9.46906L4.91748 8C4.91748 7.72386 5.14134 7.5 5.41748 7.5Z" fill="black"/>
    <path fill-rule="evenodd" clip-rule="evenodd" d="M7.47422 7.75456C7.745 7.80871 7.92061 8.07213 7.86645 8.34291L7.62161 9.56712C7.56746 9.8379 7.30404 10.0135 7.03326 9.95935C6.76248 9.90519 6.58688 9.64178 6.64103 9.371L6.88587 8.14679C6.94003 7.87601 7.20344 7.7004 7.47422 7.75456Z" fill="black"/>
    <path fill-rule="evenodd" clip-rule="evenodd" d="M3.36062 7.75456C3.08984 7.80871 2.91423 8.07213 2.96838 8.34291L3.21323 9.56712C3.26738 9.8379 3.5308 10.0135 3.80157 9.95935C4.07235 9.90519 4.24796 9.64178 4.19381 9.371L3.94896 8.14679C3.89481 7.87601 3.6314 7.7004 3.36062 7.75456Z" fill="black"/>
    <path fill-rule="evenodd" clip-rule="evenodd" d="M1.24265 8.5507C1.00586 8.69277 0.929073 8.9999 1.07115 9.23669L1.80568 10.4609C1.94775 10.6977 2.25488 10.7745 2.49167 10.6324C2.72846 10.4903 2.80524 10.1832 2.66317 9.94641L1.92864 8.7222C1.78657 8.48541 1.47944 8.40863 1.24265 8.5507Z" fill="black"/>
    <path fill-rule="evenodd" clip-rule="evenodd" d="M9.59207 8.55058C9.82886 8.69265 9.90564 8.99978 9.76357 9.23657L9.02904 10.4608C8.88697 10.6976 8.57984 10.7744 8.34305 10.6323C8.10626 10.4902 8.02947 10.1831 8.17155 9.94629L8.90608 8.72208C9.04815 8.48529 9.35528 8.4085 9.59207 8.55058Z" fill="black"/>
    <path d="M5.42004 10.4C6.1104 10.4 6.67004 10.9597 6.67004 11.65C6.67004 12.3404 6.1104 12.9 5.42004 12.9C4.72969 12.9 4.17004 12.3404 4.17004 11.65C4.17004 10.9597 4.72969 10.4 5.42004 10.4Z" fill="black"/>
    <path fill-rule="evenodd" clip-rule="evenodd" d="M4.67004 11.65C4.67004 12.0642 5.00583 12.4 5.42004 12.4C5.83426 12.4 6.17004 12.0642 6.17004 11.65C6.17004 11.2358 5.83426 10.9 5.42004 10.9C5.00583 10.9 4.67004 11.2358 4.67004 11.65ZM5.42004 13.4C4.45355 13.4 3.67004 12.6165 3.67004 11.65C3.67004 10.6835 4.45355 9.90002 5.42004 9.90002C6.38654 9.90002 7.17004 10.6835 7.17004 11.65C7.17004 12.6165 6.38654 13.4 5.42004 13.4Z" fill="black"/>
  </g>
  <defs>
    <clipPath id="a">
      <rect width="20" height="20" fill="white"/>
    </clipPath>
  </defs>
</svg>

<svg viewBox="0 0 20 20" fill="none" xmlns="http://www.w3.org/2000/svg" height="1em" width="1em">
  <g clip-path="url(#a)">
    <g opacity=".8" fill="currentColor">
      <path d="M17 3h-7a2 2 0 0 0-2 2v13.5A1.5 1.5 0 0 0 9.5 20H17a2 2 0 0 0 2-2V5a2 2 0 0 0-2-2Z"/>
      <path fill-rule="evenodd" clip-rule="evenodd" d="M7 5a3 3 0 0 1 3-3h7a3 3 0 0 1 3 3v13a3 3 0 0 1-3 3H9.5A2.5 2.5 0 0 1 7 18.5V5Zm3-1a1 1 0 0 0-1 1v13.5a.5.5 0 0 0 .5.5H17a1 1 0 0 0 1-1V5a1 1 0 0 0-1-1h-7Z"/>
      <path d="M6.917 10.97c2.164 0 3.918.986 3.918 2.203 0 1.217-1.754 2.203-3.918 2.203C4.754 15.376 3 14.39 3 13.173c0-1.217 1.754-2.204 3.917-2.204Z"/>
      <path fill-rule="evenodd" clip-rule="evenodd" d="M4.638 13.86c.533.3 1.337.516 2.28.516.942 0 1.746-.217 2.28-.517.564-.317.637-.6.637-.686 0-.087-.073-.37-.638-.687-.533-.3-1.337-.517-2.28-.517-.942 0-1.746.217-2.28.517-.564.318-.637.6-.637.687 0 .086.073.369.638.686Zm-.98 1.742c-.854-.48-1.658-1.3-1.658-2.43 0-1.13.804-1.95 1.657-2.43.885-.497 2.04-.773 3.26-.773 1.221 0 2.376.276 3.26.774.854.48 1.658 1.3 1.658 2.43 0 1.13-.804 1.95-1.657 2.43-.885.497-2.04.773-3.26.773-1.222 0-2.376-.276-3.26-.774Z"/>
      <path fill-rule="evenodd" clip-rule="evenodd" d="M6.917 8.6a.9.9 0 0 1 .9.9v1.469a.9.9 0 1 1-1.8 0V9.5a.9.9 0 0 1 .9-.9Z"/>
      <path fill-rule="evenodd" clip-rule="evenodd" d="M9.053 8.862a.9.9 0 0 1 .706 1.06l-.245 1.224a.9.9 0 0 1-1.765-.353l.245-1.225a.9.9 0 0 1 1.059-.706Zm-4.271 0a.9.9 0 0 0-.706 1.06l.245 1.224a.9.9 0 0 0 1.765-.353l-.245-1.225a.9.9 0 0 0-1.059-.706Z"/>
      <path fill-rule="evenodd" clip-rule="evenodd" d="M2.537 9.708a.9.9 0 0 0-.309 1.234l.735 1.225a.9.9 0 0 0 1.543-.926l-.734-1.225a.9.9 0 0 0-1.235-.308Zm8.761 0a.9.9 0 0 1 .309 1.234l-.735 1.225a.9.9 0 0 1-1.543-.926l.734-1.225a.9.9 0 0 1 1.235-.308Z"/>
    </g>
    <path d="M12.675 15.137a.675.675 0 1 1-1.35 0 .675.675 0 0 1 1.35 0Z" fill="currentColor"/>
    <path fill-rule="evenodd" clip-rule="evenodd" d="M12 14.963a.175.175 0 1 0 0 .35.175.175 0 0 0 0-.35Zm-1.175.175a1.175 1.175 0 1 1 2.35 0 1.175 1.175 0 0 1-2.35 0Z" fill="#000"/>
    <path fill-rule="evenodd" clip-rule="evenodd" d="M6 3.5A2.5 2.5 0 0 1 8.5 1h7A2.5 2.5 0 0 1 18 3.5v13a2.5 2.5 0 0 1-2.5 2.5H8a2 2 0 0 1-2-2v-1.5a.5.5 0 0 1 1 0V17a1 1 0 0 0 1 1h7.5a1.5 1.5 0 0 0 1.5-1.5v-13A1.5 1.5 0 0 0 15.5 2h-7A1.5 1.5 0 0 0 7 3.5v3.25a.5.5 0 0 1-1 0V3.5Z" fill="#000"/>
    <path fill-rule="evenodd" clip-rule="evenodd" d="M2.893 12.795c.62.35 1.512.581 2.524.581 1.013 0 1.904-.232 2.525-.581.637-.358.893-.775.893-1.122 0-.348-.256-.765-.893-1.123-.62-.35-1.512-.58-2.525-.58-1.012 0-1.903.23-2.524.58-.637.358-.893.775-.893 1.123 0 .347.256.764.893 1.122Zm-.49.872C1.62 13.227 1 12.542 1 11.673c0-.87.621-1.555 1.402-1.994.797-.449 1.864-.71 3.015-.71 1.152 0 2.219.261 3.016.71.78.439 1.402 1.124 1.402 1.994 0 .869-.621 1.554-1.402 1.994-.797.448-1.864.71-3.016.71-1.15 0-2.218-.262-3.015-.71Z" fill="#000"/>
    <path fill-rule="evenodd" clip-rule="evenodd" d="M5.417 7.5a.5.5 0 0 1 .5.5v1.47a.5.5 0 0 1-1 0V8a.5.5 0 0 1 .5-.5Zm2.057.255a.5.5 0 0 1 .392.588l-.244 1.224a.5.5 0 0 1-.981-.196l.245-1.224a.5.5 0 0 1 .588-.392Zm-4.114 0a.5.5 0 0 0-.392.588l.245 1.224a.5.5 0 1 0 .98-.196L3.95 8.147a.5.5 0 0 0-.588-.392Zm-2.117.795a.5.5 0 0 0-.172.687l.735 1.224a.5.5 0 1 0 .857-.515L1.93 8.722a.5.5 0 0 0-.686-.171Zm8.349 0a.5.5 0 0 1 .172.687l-.735 1.224a.5.5 0 1 1-.857-.515l.734-1.224a.5.5 0 0 1 .686-.171Z" fill="#000"/>
    <path d="M5.42 10.4a1.25 1.25 0 1 1 0 2.5 1.25 1.25 0 0 1 0-2.5Z" fill="#000"/>
    <path fill-rule="evenodd" clip-rule="evenodd" d="M4.67 11.65a.75.75 0 1 0 1.5 0 .75.75 0 0 0-1.5 0Zm.75 1.75a1.75 1.75 0 1 1 0-3.5 1.75 1.75 0 0 1 0 3.5Z" fill="#000"/>
  </g>
  <defs>
    <clipPath id="a">
      <path fill="#fff" d="M0 0h20v20H0z"/>
    </clipPath>
  </defs>
</svg>
